X:161
T:Swiss Allemand. THO5.161, The
R:Allemand
M:2/4
L:1/8
B:Thompson's Complete Collection of 200 Favourite Dances Vol.5
F:https://www.libraryofdance.org/manuals/1780c-Thompson-Compleat-5.pdf
Z:vmp. Peter Dunk 2024
Q:1/4=110
K:D
d>eff|dd e2|d/c/B/A/ Bc|d/c/d/e/ dA|
d>eff|dd e2|d/c/B/A/ Bc|de d2:|
|:f/e/f/g/ f/g/a/f/|g/a/b/g/ e2|e/d/e/f/ e/f/g/e/|f/g/a/f/ d2|
d>eff|dd e2|d/c/B/A/ Bc|d2 D2:|
W:
W:First and 2nd Couples change sidesand back again ./.
W:then hands across & back again ./:
W:lead down the middle, up again and cast off :/.
W:Allemand with the right hand then with the left :/:

